public/static/icons/shape-avatar.svg

<svg height="62" viewBox="0 0 144 62" width="144" xmlns="http://www.w3.org/2000/svg"><path d="m111.34 23.88c-10.62-10.46-18.5-23.88-38.74-23.88h-1.2c-20.24 0-28.12 13.42-38.74 23.88-7.72 9.64-19.44 11.74-32.66 12.12v26h144v-26c-13.22-.38-24.94-2.48-32.66-12.12z" fill="#fff" fill-rule="evenodd"/></svg>

<svg xmlns="http://www.w3.org/2000/svg" width="144" height="62" viewBox="0 0 144 62">
  <path fill="#FFF" fill-rule="evenodd" d="M111.34,23.88 C100.72,13.42 92.84,0 72.6,0 L71.4,0 C51.16,0 43.28,13.42 32.66,23.88 C24.94,33.52 13.22,35.62 0,36 L0,62 L144,62 L144,36 C130.78,35.62 119.06,33.52 111.34,23.88 Z"/>
</svg>
